X:117
T:I will Tell my Mammy. JGi.117
T:Italian Monferina,aka. JGi.117
M:6/8
L:1/8
Q:3/8=120
S:Joshua Gibbons MS,1823,Tealby,Lincs.
R:jig
O:Tealby,Lincolnshire
Z:VMP/R.Greig, 2009
K:G
d|GAB BcA|AGGG2d|dFF FGA|ABGG2D|GAB ABG|AGGG2A/G/|FGA ABc|dddd3:|
|:d|gfg afe|Bcdd2d|gfg afd|Bcdd2d|gfg gfg|efe efg|ded cBA|AGGG3:|

